!!!COM: Haydn, Franz Joseph
!!!OTL: String Quartet in D Major
!!!OPS: Opus 64
!!!ONM: No. 5
!!!OMD: Finale: Vivace
!!!OMV: 4
!!!SCT: H III:63
!!!SCA: Thematisch-bibliographisches Werkevererzeichnis (A. van Hoboken)
!!!YOR: Dover Edition; reprint of Eulenburg Edition
!!!ENC: Frances Bennion
!!!CDT: 1732/3/31/-1809/5/31/
!!!CNT: Oesterreich
!!!YEC: Copyright (c) 1994, 2000 Center for Computer Assisted Research in the Humanities
!!!YEM: Rights to all derivative editions reserved.
!!!YEM: Refer to licensing agreement for further details.
!!!YEN: United States of America
**kern	**kern	**kern	**kern
*k[f#c#]	*k[f#c#]	*k[f#c#]	*k[f#c#]
*D:	*D:	*D:	*D:
*clefF4	*clefC3	*clefF	*clefF
*M2/4	*M2/4	*M2/4	*M2/4
4.r	4.r	4.r	4.r
8r	8r	8r	16f#
.	.	.	16g
=1	=1	=1	=1
8D	8d	8f#	16a
.	.	.	16f#
8r	8r	8r	16g
.	.	.	16a
8D	8d	8g	16b
.	.	.	16cc#
8r	8r	8r	16dd
.	.	.	16b
=2	=2	=2	=2
4D	4d	4f#	16a
.	.	.	16dd
.	.	.	16ff#
.	.	.	16ee
4r	4r	4r	16dd
.	.	.	16cc#
.	.	.	16b
.	.	.	16a
=3	=3	=3	=3
8BB	8G	2d	16g
.	.	.	16a
8AA	8A	.	16f#
.	.	.	16g
8GG	8B	.	16e
.	.	.	16f#
8GG#	8B	.	16d
.	.	.	16e
=4	=4	=4	=4
4AA	4A	8c#	16c#
.	.	.	16d
.	.	4.r	16e
.	.	.	16c#
4r	4r	.	16A
.	.	.	16e
.	.	.	16f#
.	.	.	16g
=5	=5	=5	=5
8DD	8D	8f#	16a
.	.	.	16f#
8r	8r	8r	16g
.	.	.	16a
8D	8d	8g	16b
.	.	.	16cc#
8r	8r	8r	16dd
.	.	.	16b
=6	=6	=6	=6
4D	4d	4f#	16a
.	.	.	16dd
.	.	.	16ff#
.	.	.	16ee
8r	8r	8r	16dd
.	.	.	16cc#
8D	8d	8f#	16b
.	.	.	16a
=7	=7	=7	=7
4GG	4G	16g	16b
.	.	16b	16dd
.	.	16g	16b
.	.	16e	16g
8AA	8A	16d	16f#
.	.	16f#	16a
8AA	8A	16e	16g
.	.	16c#	16e
=8	=8	=8	=8
4D	4d	4d	16d
.	.	.	16f#
.	.	.	16a
.	.	.	16f#
4r	8r	4r	16d
.	.	.	16e
.	8d	.	16f#
.	.	.	16g#
=9	=9	=9	=9
2r	8c#	8e	16a
.	.	.	16cc#
.	8d	8e	16b
.	.	.	16g#
.	8c#	8e	16a
.	.	.	16cc#
.	8r	8r	16ee
.	.	.	16cc#
=10	=10	=10	=10
2r	8c#	8e	16a
.	.	.	16cc#
.	8d	8e	16b
.	.	.	16g#
.	8c#	8e	16a
.	.	.	16cc#
.	8r	8r	16ee
.	.	.	16cc#
=11	=11	=11	=11
2r	8d	8f#	16b
.	.	.	16dd
.	8e	8g	16cc#
.	.	.	16a#
.	8d	8f#	16b
.	.	.	16dd
.	8r	8r	16ff#
.	.	.	16dd
=12	=12	=12	=12
2r	8d	8f#	16b
.	.	.	16dd
.	8e	8g	16cc#
.	.	.	16a#
.	8d	8f#	16b
.	.	.	16dd
.	8B	8d	16ff#
.	.	.	16gg#
=13	=13	=13	=13
8r	4c#	8e	16aa
.	.	.	16gg#
4A	.	8cc#	16ff#
.	.	.	16ee
.	4r	8b	16dd#
.	.	.	16ff#
8G#	.	8B	16ee
.	.	.	16b
=14	=14	=14	=14
8r	8r	2r	16dd
.	.	.	16cc#
4D	8f#	.	16b
.	.	.	16a
.	8e	.	16g#
.	.	.	16b
8C#	8E	.	16a
.	.	.	16e
=15	=15	=15	=15
8BB	8r	8r	16d
.	.	.	16e
8GG#	4E	16d	16f#
.	.	16B	16d
8AA	.	8c#	16c#
.	.	.	16e
8FF#	8F#	16c#	16a
.	.	16a	16cc#
=16	=16	=16	=16
8DD	8D	8f#	16b
.	.	.	16dd
8EE	8E	16d	16b
.	.	16B	16g#
4AA	4A	4A	16a
.	.	.	16A
.	.	.	16a
.	.	.	16b
=17	=17	=17	=17
4AA	4c#	8r	16cc#
.	.	.	16a
.	.	16a	16cc#
.	.	16b	16dd
4r	4r	16cc#	16ee
.	.	16a	16cc#
.	.	16b	16dd
.	.	16g#	16b
=18	=18	=18	=18
4AA	4e	8a	16cc#
.	.	.	16a
.	.	16a	16cc#
.	.	16b	16dd
4r	4r	16cc#	16ee
.	.	16a	16cc#
.	.	16cc#	16ee
.	.	16dd	16ff#
=19	=19	=19	=19
4AA	4c#	16ee	16gg
.	.	16ff#	16aa
.	.	16dd#	16ff#
.	.	16ff#	16aa
4r	4r	8ee	16gg
.	.	.	16ee
.	.	16c#	16cc#
.	.	16d	16a
=20	=20	=20	=20
4AA	4c#	16e	16g
.	.	16f#	16a
.	.	16d#	16f#
.	.	16f#	16a
4r	4r	16e	16g
.	.	16c#	16e
.	.	16d	16f#
.	.	16e	16g
=21	=21	=21	=21
8DD	8D	8f#	16a
.	.	.	16f#
8r	8r	8r	16g
.	.	.	16a
8D	8d	8g	16b
.	.	.	16cc#
8r	8r	8r	16dd
.	.	.	16b
=22	=22	=22	=22
4D	4d	4f#	16a
.	.	.	16dd
.	.	.	16ff#
.	.	.	16ee
4r	4r	4r	16dd
.	.	.	16cc#
.	.	.	16b
.	.	.	16a
=23	=23	=23	=23
8BB	8G	2d	16g
.	.	.	16a
8AA	8A	.	16f#
.	.	.	16g
8GG	8B	.	16e
.	.	.	16f#
8GG#	8B	.	16d
.	.	.	16e
=24	=24	=24	=24
4AA	4A	8c#	16c#
.	.	.	16d
.	.	4.r	16e
.	.	.	16c#
4r	4r	.	16A
.	.	.	16e
.	.	.	16f#
.	.	.	16g
=25	=25	=25	=25
8DD	8D	8f#	16a
.	.	.	16f#
8r	8r	8r	16g
.	.	.	16a
8D	8d	8g	16b
.	.	.	16cc#
8r	8r	8r	16dd
.	.	.	16b
=26	=26	=26	=26
4D	4d	4f#	16a
.	.	.	16dd
.	.	.	16ff#
.	.	.	16ee
8r	8r	8r	16dd
.	.	.	16cc#
8D	8d	8f#	16b
.	.	.	16a
=27	=27	=27	=27
4GG	4G	16g	16b
.	.	16b	16dd
.	.	16g	16b
.	.	16e	16g
8AA	8A	16d	16f#
.	.	16f#	16a
8AA	8A	16e	16g
.	.	16c#	16e
=28	=28	=28	=28
4D	4d	4d	16d
.	.	.	16f#
.	.	.	16a
.	.	.	16f#
4r	4r	4r	16d
.	.	.	16e
.	.	.	8r
=29	=29	=29	=29
4D	4d	4d	16d
.	.	.	16f#
.	.	.	16a
.	.	.	16f#
4r	4r	8r	16d
.	.	.	16e
.	.	16d	16f
.	.	16e	16g
=30	=30	=30	=30
2r	2r	16f	8a
.	.	16d	.
.	.	16f	4dd
.	.	16g	.
.	.	16a	.
.	.	16b-	.
.	.	16a	8cc#
.	.	16g	.
=31	=31	=31	=31
2r	2r	16f	8dd
.	.	16g	.
.	.	16e	8ee
.	.	16f	.
.	.	16d	8ff
.	.	16e	.
.	.	16c	8ff#
.	.	16d	.
=32	=32	=32	=32
2r	2r	16B-	8gg
.	.	16c	.
.	.	16A	8aa
.	.	16B-	.
.	.	16G	8bb-
.	.	16g	.
.	.	16a	8dd
.	.	16b-	.
=33	=33	=33	=33
2r	2r	16a	8cc#
.	.	16e	.
.	.	16c#	4aa
.	.	16d	.
.	.	16e	.
.	.	16A	.
.	.	16B	8gg
.	.	16c#	.
=34	=34	=34	=34
2r	2r	8d	16ff
.	.	.	16gg
.	.	4a	16ee
.	.	.	16ff
.	.	.	16dd
.	.	.	16ff
.	.	8g#	16ee
.	.	.	16dd
=35	=35	=35	=35
2r	2r	8a	16cc
.	.	.	16ee
.	.	8b	16aa
.	.	.	16gg#
.	.	8cc	16aa
.	.	.	16ee
.	.	8cc#	16aa
.	.	.	16gg
=36	=36	=36	=36
2r	2r	8dd	16ff
.	.	.	16aa
.	.	8ee	16ddd
.	.	.	16ccc#
.	.	8ff	16ddd
.	.	.	16aa
.	.	8a	16ddd
.	.	.	16ff
=37	=37	=37	=37
2r	2r	8g#	16ddd
.	.	.	16ccc
.	.	4ee	16bb
.	.	.	16aa
.	.	.	16gg#
.	.	.	16aa
.	.	8dd	16bb
.	.	.	16ee
=38	=38	=38	=38
2r	2r	8cc#	16aa
.	.	.	16ee
.	.	8dd	16aa
.	.	.	16ff
.	.	8ee	16aa
.	.	.	16gg
.	.	8g	16ee
.	.	.	16cc#
=39	=39	=39	=39
8r	2r	16f	16dd
.	.	16g	16ee
4D	.	16a	16ff
.	.	16f	16gg
.	.	8e	16aa
.	.	.	16bb-
8C#	.	8ee	16aa
.	.	.	16gg
=40	=40	=40	=40
8D	2r	16a	16ff
.	.	16b-	16gg
8E	.	16g	16ee
.	.	16a	16ff
8F	.	8f	16dd
.	.	.	16a
8F#	.	8a	16dd
.	.	.	16cc
=41	=41	=41	=41
8G	2r	8d	16b-
.	.	.	16cc
8A	.	8f#	16a
.	.	.	16b-
8B-	.	8g	16g
.	.	.	16a
8D	.	8B-	16f
.	.	.	16g
=42	=42	=42	=42
8C	2r	4.B-	16e
.	.	.	16f
8D	.	.	16d
.	.	.	16e
8E	.	.	16c
.	.	.	16d
8C	.	8e	16B-
.	.	.	16c
=43	=43	=43	=43
16F	8r	16f	4A
16G	.	16cc	.
16A	4f	16b-	.
16B-	.	16a	.
16c	.	8g	4r
16d	.	.	.
16c	8e	[8cc	.
16B-	.	.	.
=44	=44	=44	=44
16A	8f	16cc]	2r
16B-	.	16dd	.
16A	8g	16cc	.
16G	.	16b-	.
16F	8a	8a	.
16G	.	.	.
16E-	8f	[8ff	.
16F	.	.	.
=45	=45	=45	=45
16D	8b-	16ff]	2r
16E-	.	16gg	.
16D	8cc	16ff	.
16C	.	16ee-	.
16BB-	8dd	16dd	.
16AA	.	16cc	.
16BB-	8f	16b-	.
16BB	.	16a	.
=46	=46	=46	=46
16C	8e	16g	2r
16D	.	16f	.
16E	4cc	16e	.
16F	.	16d	.
16E	.	16c	.
16F	.	16d	.
16G	8b-	16e	.
16E	.	16g	.
=47	=47	=47	=47
16F	8a	8a	2r
16E	.	.	.
16F	8b-	4r	.
16G	.	.	.
16A	8cc	.	.
16B-	.	.	.
16A	8ee-	16cc	.
16G	.	16b-	.
=48	=48	=48	=48
16F#	8dd	16a	2r
16G	.	16b-	.
16E	4dd	16g	.
16F#	.	16a	.
16D	.	16f#	.
16E	.	16g	.
16F#	8cc	16a	.
16D	.	16f#	.
=49	=49	=49	=49
4G	16b-	8d	8r
.	16G	.	.
.	16B-	8b-	4gg
.	16c	.	.
8r	16d	8a	.
.	16e-	.	.
8D	16d	16b-	8ff#
.	16c	16cc	.
=50	=50	=50	=50
4GG	16B-	16dd	8gg
.	16c	16ee-	.
.	16A	16cc	8aa
.	16B-	16dd	.
8r	16G	8b-	8bb-
.	16A	.	.
8GG	16F	[8gg	8bb
.	16G	.	.
=51	=51	=51	=51
4CC	16E-	16gg]	8ccc
.	16F	16aa-	.
.	16D	16ff	8ddd
.	16E-	16gg	.
8r	16C	8ee-	8eee-
.	16E-	.	.
8C	16G	8b-	8gg
.	16c	.	.
=52	=52	=52	=52
8D	8d	16a	8ff#
.	.	16g	.
16D	16a	16f#	4ddd
16E	16g	16g	.
16F#	8f#	16a	.
16D	.	16f#	.
16E	8d	16g	8ccc
16F#	.	16a	.
=53	=53	=53	=53
8G	4d	16b-	8bb-
.	.	16cc	.
8A	.	16b-	8ccc
.	.	16a	.
8B-	8r	16g	8ddd
.	.	16f	.
8B	[8g	16e	8ff
.	.	16d	.
=54	=54	=54	=54
4c	16g]	16e	8ee
.	16e	16g	.
.	16c	16e	4ccc
.	16d	16f	.
8r	16e	16g	.
.	16c	16e	.
8c	16d	16f	8bb-
.	16e	16g	.
=55	=55	=55	=55
8d	8f	4f	8aa
16G	16g	.	16bb-
16B-	16f	.	16aa
8c	8e	4r	8gg
16F	16f	.	16aa
16A	16e	.	16gg
=56	=56	=56	=56
8B-	16d	2r	16ff
.	16f	.	32ee
.	.	.	32ff
8G	16e	.	16gg
.	16d	.	16ff
16A	8c#	.	8ee
16G	.	.	.
16F	16d	.	16ff
16E	16e	.	16gg
=57	=57	=57	=57
4D	16f	4.r	8aa
.	16a	.	.
.	16g	.	4dd
.	16f	.	.
4A	16e	.	.
.	16f	.	.
.	16g	[8ee	8cc#
.	16e	.	.
=58	=58	=58	=58
4D	16a	8ee]	4.ff
.	16g	.	.
.	16f	8dd	.
.	16a	.	.
4C	16b-	[4gg	.
.	16a	.	.
.	16g	.	8ee
.	16b-	.	.
=59	=59	=59	=59
4FF	16cc	8gg]	4.aa
.	16b-	.	.
.	16a	8ff	.
.	16cc	.	.
8EE	16dd	[4bb	.
.	16cc	.	.
8E	16b	.	8gg#
.	16dd	.	.
=60	=60	=60	=60
4AA	16ee	8bb]	4.ccc
.	16dd	.	.
.	16cc	8aa	.
.	16ee	.	.
4GG	16ff	[4ddd	.
.	16ee	.	.
.	16dd	.	8bb
.	16ff	.	.
=61	=61	=61	=61
4C	16ee	8ddd]	4.eee
.	16g	.	.
.	16a	4ccc	.
.	16b	.	.
4BB-	16cc	.	.
.	16dd	.	.
.	16ee	16cc	8fff
.	16dd	16dd	.
=62	=62	=62	=62
2AA	16cc#	4.ee	4ggg
.	16dd	.	.
.	16ee	.	.
.	16cc#	.	.
.	16a	.	4ccc#
.	16g	.	.
.	16f	8gg	.
.	16e	.	.
=63	=63	=63	=63
4FF	16f	8a	8ddd
.	16e	.	.
.	16f	16aa	4ddd
.	16g	16gg	.
[4F	16a	8ff	.
.	16g	.	.
.	16f	8aa	8ccc
.	16e	.	.
=64	=64	=64	=64
8F]	8d	4gg	16bb-
.	.	.	16ddd
4E	8g	.	16ccc
.	.	.	16bb-
.	8c	4ff	16aa
.	.	.	16ccc
[8D	8f	.	16bb-
.	.	.	16aa
=65	=65	=65	=65
8D]	8r	4ee	16gg
.	.	.	16bb-
8C#	4A	.	16aa
.	.	.	16gg
8D	.	4a	16ff
.	.	.	16aa
8FF	8d	.	16gg
.	.	.	16ff
=66	=66	=66	=66
4GG	4G	4b-	16ee
.	.	.	16gg
.	.	.	16ff
.	.	.	16ee
4GG#	4G#	4b	16dd
.	.	.	16ff
.	.	.	16ee
.	.	.	16dd
=67	=67	=67	=67
[2AA	4A	4a	16cc#
.	.	.	16dd
.	.	.	16ee
.	.	.	16cc#
.	4E	4c#	16a
.	.	.	16b-
.	.	.	16a
.	.	.	16g
=68	=68	=68	=68
2AA_	2F	4d	16f
.	.	.	16g
.	.	.	16a
.	.	.	16f
.	.	4f	16d
.	.	.	16f
.	.	.	16e
.	.	.	16d
=69	=69	=69	=69
2AA_	8E	8g	16c#
.	.	.	16d
.	8D	8f	16e
.	.	.	16d
.	8A	8c#	16f
.	.	.	16e
.	8A	8d	16g
.	.	.	16f
=70	=70	=70	=70
2AA_	4A	8e	16a
.	.	.	16g
.	.	8f	16b-
.	.	.	16a
.	4r	8g	16dd
.	.	.	16cc#
.	.	8f	16ee
.	.	.	16dd
=71	=71	=71	=71
2AA_	2r	8c#	16ff
.	.	.	16ee
.	.	8d	16gg
.	.	.	16ff
.	.	8e	16aa
.	.	.	16gg
.	.	8f	16bb-
.	.	.	16aa
=72	=72	=72	=72
2AA_	[2c# [2e	[2g	16bb-
.	.	.	16gg
.	.	.	16ee
.	.	.	16cc#
.	.	.	16b-
.	.	.	16g
.	.	.	16e
.	.	.	16c#
=73	=73	=73	=73
2AA_	2c#_ 2e_	2g_	8B-
.	.	.	8A
.	.	.	8c#
.	.	.	8e
=74	=74	=74	=74
4AA]	4c#] 4e]	4g]	16g
.	.	.	16a
.	.	.	16b-
.	.	.	16a
4r	4r	4r	16g
.	.	.	16a
.	.	.	16f
.	.	.	16g
=75	=75	=75	=75
2r	2r	2r	16e
.	.	.	16f
.	.	.	16g
.	.	.	16f
.	.	.	16e
.	.	.	16f
.	.	.	16d
.	.	.	16e
=76	=76	=76	=76
2r	2r	2r	16c#
.	.	.	16e
.	.	.	16d
.	.	.	16c#
.	.	.	16d
.	.	.	16e
.	.	.	16f#
.	.	.	16g
=77	=77	=77	=77
8D	8d	8f#	16a
.	.	.	16f#
8r	8r	8r	16g
.	.	.	16a
8D	8d	8g	16b
.	.	.	16cc#
8r	8r	8r	16dd
.	.	.	16b
=78	=78	=78	=78
4D	4d	4f#	16a
.	.	.	16dd
.	.	.	16ff#
.	.	.	16ee
4r	4r	4r	16dd
.	.	.	16cc#
.	.	.	16b
.	.	.	16a
=79	=79	=79	=79
8BB	8G	2d	16g
.	.	.	16a
8AA	8A	.	16f#
.	.	.	16g
8GG	8B	.	16e
.	.	.	16f#
8GG#	8B	.	16d
.	.	.	16e
=80	=80	=80	=80
4AA	4A	8c#	16c#
.	.	.	16d
.	.	4.r	16e
.	.	.	16c#
4r	4r	.	16A
.	.	.	16e
.	.	.	16f#
.	.	.	16g
=81	=81	=81	=81
8DD	8D	8f#	16a
.	.	.	16f#
8r	8r	8r	16g
.	.	.	16a
8D	8d	8g	16b
.	.	.	16cc#
8r	8r	8r	16dd
.	.	.	16b
=82	=82	=82	=82
4D	4d	4f#	16a
.	.	.	16dd
.	.	.	16ff#
.	.	.	16ee
8r	8r	8r	16dd
.	.	.	16cc#
8D	8d	8f#	16b
.	.	.	16a
=83	=83	=83	=83
4GG	4G	16g	16b
.	.	16b	16dd
.	.	16g	16b
.	.	16e	16g
8AA	8A	16d	16f#
.	.	16f#	16a
8AA	8A	16e	16g
.	.	16c#	16e
=84	=84	=84	=84
4D	4F#	4d	16d
.	.	.	16f#
.	.	.	16a
.	.	.	16f#
4r	8r	4r	16d
.	.	.	16e
.	8d	.	16f#
.	.	.	16g#
=85	=85	=85	=85
2r	8c#	8e	16a
.	.	.	16cc#
.	8d	8e	16b
.	.	.	16g#
.	8c#	8e	16a
.	.	.	16cc#
.	8r	8r	16ee
.	.	.	16cc#
=86	=86	=86	=86
2r	8c#	8e	16a
.	.	.	16cc#
.	8d	8e	16b
.	.	.	16g#
.	8c#	8e	16a
.	.	.	16cc#
.	8r	8r	16ee
.	.	.	16cc#
=87	=87	=87	=87
2r	8d	8f#	16b
.	.	.	16dd
.	8e	8g	16cc#
.	.	.	16a#
.	8d	8f#	16b
.	.	.	16dd
.	8r	8r	16ff#
.	.	.	16dd
=88	=88	=88	=88
2r	8d	8f#	16b
.	.	.	16dd
.	8e	8g	16cc#
.	.	.	16a#
.	8d	8f#	16b
.	.	.	16dd
.	8B	8d	16ff#
.	.	.	16gg#
=89	=89	=89	=89
8r	4c#	8e	16aa
.	.	.	16gg#
4A	.	8cc#	16ff#
.	.	.	16ee
.	4r	8b	16dd#
.	.	.	16ff#
8G#	.	8B	16ee
.	.	.	16b
=90	=90	=90	=90
8r	8r	2r	16dd
.	.	.	16cc#
4D	8f#	.	16b
.	.	.	16a
.	8e	.	16g#
.	.	.	16b
8C#	8E	.	16a
.	.	.	16e
=91	=91	=91	=91
8BB	8r	8r	16d
.	.	.	16e
8GG#	4E	16d	16f#
.	.	16B	16d
8AA	.	8c#	16c#
.	.	.	16e
8FF#	8F#	16c#	16a
.	.	16a	16cc#
=92	=92	=92	=92
8DD	8D	8f#	16b
.	.	.	16dd
8EE	8E	16d	16b
.	.	16B	16g#
8AA	8A	8A	16a
.	.	.	16A
8r	8r	8r	16a
.	.	.	16b
=93	=93	=93	=93
4AA	4c#	8r	16cc#
.	.	.	16a
.	.	16a	16cc#
.	.	16b	16dd
4r	4r	16cc#	16ee
.	.	16a	16cc#
.	.	16b	16dd
.	.	16g#	16b
=94	=94	=94	=94
4AA	4e	8a	16cc#
.	.	.	16a
.	.	16a	16cc#
.	.	16b	16dd
4r	4r	16cc#	16ee
.	.	16a	16cc#
.	.	16cc#	16ee
.	.	16dd	16ff#
=95	=95	=95	=95
4AA	4c#	16ee	16gg
.	.	16ff#	16aa
.	.	16dd#	16ff#
.	.	16ff#	16aa
4r	4r	8ee	16gg
.	.	.	16a
.	.	8r	16cc#
.	.	.	16ee
=96	=96	=96	=96
4AA	4c#	16ee	16gg
.	.	16ff#	16aa
.	.	16dd#	16ff#
.	.	16ff#	16aa
4r	8r	8ee	16gg
.	.	.	16ee
.	16d	16a	16ff#
.	16e	16g	16gg
=97	=97	=97	=97
8DD	16f#	16f#	16aa
.	16d	16dd	16ff#
8r	16e	16cc#	16gg
.	16f#	16cc	16aa
8DD	16g	16b	16bb
.	16a	16a	16ccc#
8r	16b	16g	16ddd
.	16g	16b	16bb
=98	=98	=98	=98
8DD	16f#	4dd	16aa
.	16e	.	16ddd
16D	16d	.	16fff#
16E	16c#	.	16eee
16F#	16d	4r	16ddd
16D	16f#	.	16ccc#
16E	16g	.	16bb
16F#	16a	.	16aa
=99	=99	=99	=99
4G	16b	2r	16gg
.	16cc	.	16aa
.	16a	.	16ff#
.	16b	.	16gg
4r	16g	.	16ee
.	16a	.	16ff#
.	16f#	.	16dd
.	16g	.	16ee
=100	=100	=100	=100
4A	4e	4.r	16cc#
.	.	.	16dd
.	.	.	16ee
.	.	.	16cc#
4r	8r	.	16a
.	.	.	16ee
.	16d	16a	16ff#
.	16e	16g	16gg
=101	=101	=101	=101
8DD	16f#	16f#	16aa
.	16d	16dd	16ff#
8r	16e	16cc#	16gg
.	16f#	16cc	16aa
8DD	16g	16b	16bb
.	16a	16a	16ccc#
8r	16b	16g	16ddd
.	16g	16b	16bb
=102	=102	=102	=102
8DD	16f#	4dd	16aa
.	16e	.	16ddd
16D	16d	.	16fff#
16E	16c#	.	16eee
16F#	16d	8r	16ddd
16D	16f#	.	16ccc#
16E	16g	[8dd	16bb
16F#	16a	.	16aa
=103	=103	=103	=103
8G	8g	16dd]	16bb
.	.	16b	16gg
8G	8g	16g	16bb
.	.	16e	16gg
8A	8a	16d	16ff#
.	.	16f#	16aa
8AA	8A	16c#	16a
.	.	16e	16cc#
=104	=104	=104	=104
4D	4d	16d	16dd
.	.	16f#	16ff#
.	.	16a	16aa
.	.	16f#	16ff#
4r	4r	16d	16dd
.	.	16e	16ee
.	.	16c#	16cc#
.	.	16d	16dd
=105	=105	=105	=105
2r	2r	16B	16b
.	.	16d	16dd
.	.	16f#	16ff#
.	.	16d	16dd
.	.	16B	16b
.	.	16c#	16cc#
.	.	16A	16a
.	.	16B	16b
=106	=106	=106	=106
16G	16g	16G	16g
16B	16b	16b	16b
16d	16dd	16dd	16dd
16B	16b	16b	16b
16G	16g	16g	16g
16A	16a	16a	16a
16F#	16f#	16f#	16f#
16G	16g	16g	16g
=107	=107	=107	=107
16E	16e	16e	16e
16F#	16f#	16f#	16f#
16D	16d	16d	16d
16E	16e	16e	16e
16C#	16c#	16c#	16c#
16D	16d	16d	16d
16BB	16B	16B	16B
16C#	16c#	16c#	16c#
=108	=108	=108	=108
4AA	4A	4A	16A
.	.	.	16B
.	.	.	16c#
.	.	.	16d
4r	4r	4r	16c#
.	.	.	16d
.	.	.	16e
.	.	.	16f#
=109	=109	=109	=109
2r	2r	4.r	16g
.	.	.	16d#
.	.	.	16e
.	.	.	16f#
.	.	.	16g
.	.	.	16e
.	.	16d	16f#
.	.	16e	16g
=110	=110	=110	=110
8D	2r	16f#	16a
.	.	16d	16f#
8r	.	16e	16g
.	.	16f#	16a
8D	.	16g	16b
.	.	16a	16cc#
8r	.	16b	16dd
.	.	16g	16b
=111	=111	=111	=111
8D	4.r	16f#	16a
.	.	16g	16b
4r	.	16e	16g
.	.	16f#	16a
.	.	8d	16f#
.	.	.	16dd
16D	16F#	8r	16dd
16E	16G	.	16dd
=112	=112	=112	=112
16F#	16A	2r	16dd
16D	16F#	.	16dd
16E	16G	.	16dd
16F#	16A	.	16dd
16G	16B	.	16dd
16A	16c#	.	16dd
16B	16d	.	16dd
16G	16B	.	16dd
=113	=113	=113	=113
16F#	16A	4.r	16dd
16G	16B	.	16dd
16E	16G	.	16dd
16F#	16A	.	16dd
8D	16F#	.	16dd
.	16d	.	16ee
8r	16d	16dd	16ff#
.	16d	16ee	16gg
=114	=114	=114	=114
2r	16d	16ff#	16aa
.	16d	16dd	16ff#
.	16d	16ee	16gg
.	16d	16ff#	16aa
.	16d	16gg	16bb
.	16d	16aa	16ccc#
.	16d	16bb	16ddd
.	16d	16gg	16bb
=115	=115	=115	=115
2r	16d	16ff#	16aa
.	16d	16gg	16bb
.	16d	16ee	16gg
.	16d	16ff#	16aa
.	16d	8dd	16ff#
.	16d	.	16aa
.	16d	16f#	16ddd
.	16e	16g	16ccc#
=116	=116	=116	=116
16DD	16f#	16a	16ddd
16DD	16d	16f#	16dd
16DD	16e	16g	16ddd
16DD	16f#	16a	16ccc#
16DD	16g	16b	16bb
16DD	16a	16cc#	16aa
16DD	16b	16dd	16gg
16DD	16g	16b	16bb
=117	=117	=117	=117
16DD	16f#	16a	16ddd
16DD	16d	16f#	16dd
16DD	16e	16g	16ddd
16DD	16f#	16a	16ccc#
16DD	16g	16b	16bb
16DD	16a	16cc#	16aa
16DD	16b	16dd	16gg
16DD	16g	16b	16bb
=118	=118	=118	=118
16DD	16f#	16a	16ddd
16DD	16d	16f#	16dd
16DD	16e	16g	16ddd
16DD	16f#	16a	16ccc#
16DD	16g	16b	16bb
16DD	16a	16cc#	16aa
16DD	16b	16dd	16gg
16DD	16g	16b	16bb
=119	=119	=119	=119
4DD	4f#	4a	4ddd
8r	8r	8r	8r
8GG	8d	8gg	8bb
=120	=120	=120	=120
8AA	8d	8ff#	16aa
.	.	.	16ddd
8AA	8d	16dd	16ff#
.	.	16ff#	16aa
8AA	16c#	16ee	16gg
.	16e	16gg	16ee
8AA	16g	16ee	16cc#
.	16e	16cc#	16a
=121	=121	=121	=121
4D	8f#	16dd	4dd
.	.	16cc#	.
.	4r	16b	.
.	.	16a	.
4r	.	16g	8r
.	.	16f#	.
.	16c#	16e	16ee
.	16d	16f#	16dd
=122	=122	=122	=122
[2AA	16e	16g	16cc#
.	16d#	16f#	16b#
.	16e	16g	16cc#
.	16d#	16f#	16b#
.	16e	16g	16cc#
.	16d	16f#	16dd
.	16c#	16e	16ee
.	16d	16f#	16dd
=123	=123	=123	=123
2AA_	16e	16g	16cc#
.	16d#	16f#	16b#
.	16e	16g	16cc#
.	16d#	16f#	16b#
.	16e	16g	16cc#
.	16d	16f#	16dd
.	16c#	16e	16ee
.	16d	16f#	16dd
=124	=124	=124	=124
2AA]	16e	16g	16cc#
.	16d#	16f#	16b#
.	16e	16g	16cc#
.	16d#	16f#	16b#
.	16e	16g	16cc#
.	16d	16f#	16dd
.	16c#	16e	16ee
.	16d	16f#	16dd
=125	=125	=125	=125
4.AA	16e	16g	16cc#
.	16d#	16f#	16b#
.	16e	16g	16cc#
.	16d#	16f#	16b#
.	8e	8g	8cc#
8BB	8d	8f#	8dd
=126	=126	=126	=126
8GG	8G	8b	8ee
8r	8r	8r	8r
8AA	8A	8g	8cc# 8e
8r	8r	8r	8r
=127	=127	=127	=127
8D	8d	8f# 8A	8aa 8dd 8f#
8r	8r	8r	8r
8GG	8d	8g 8B	8g 8dd 8bb
8r	8r	8r	8r
=128	=128	=128	=128
16AA	16e	16g	16cc#
16AA	16d	16f#	16dd
16AA	16c#	16e	16ee
16AA	16B	16d	16ff#
16AA	16A	16c#	16gg
16AA	16G	16B	16aa
16AA	16F#	16A	16bb
16AA	16E	16g	16ccc#
=129	=129	=129	=129
4DD	4D	4f#	4ddd
4r	4r	4r	4r
==	==	==	==
*-	*-	*-	*-
!!!RWG1: This file contains only pitch and duration data.
!!!RWG2: Transposing instruments are not transposed.
!!!RWG3: Spines may have incompatible meters.
!!!RWG4: Durations of rests and tied notes may be interpreted.
!!!RWG: Key is interpreted using the Humdrum key tool.
!!!GTL: 6 Quartetti ("Tost III")
!!!OPT: The Lark
!!!AFT: stage1
!!!END: 1997/04/15
!!!KEY: 1865425011
!!!EMD: Converted from MuseData to Humdrum Dec 16, 2000, by Andreas Kornstaedt using muse2kern.
!!!EMD: Manual editing by Craig Sapp, Nov 2001
